logos/yandex-ru.svg

<?xml version="1.0" encoding="UTF-8" standalone="no"?>
<svg width="512px" height="201px" viewBox="0 0 512 201" version="1.1" xmlns="http://www.w3.org/2000/svg" xmlns:xlink="http://www.w3.org/1999/xlink" preserveAspectRatio="xMidYMid">
	<g>
		<path d="M83.1452991,0 L56.2637363,0 C29.3821734,0 6.25152625,20.004884 6.25152625,58.7643468 C6.25152625,81.8949939 17.5042735,99.3992674 36.8840049,108.151404 L0.625152625,173.167277 C-0.625152625,175.042735 0.625152625,176.918193 2.5006105,176.918193 L19.3797314,176.918193 C20.6300366,176.918193 21.8803419,176.29304 22.5054945,175.042735 L55.6385836,111.277167 L67.5164835,111.277167 L67.5164835,175.042735 C67.5164835,175.667888 68.1416361,176.918193 69.3919414,176.918193 L84.3956044,176.918193 C85.6459096,176.918193 86.2710623,176.29304 86.2710623,175.042735 L86.2710623,2.5006105 C85.6459096,0.625152625 85.020757,0 83.1452991,0 L83.1452991,0 Z M67.5164835,96.2735043 L57.5140415,96.2735043 C14.3785104,96.2735043 17.5042735,15.003663 55.6385836,15.003663 L68.1416361,15.003663 L68.1416361,96.2735043 L67.5164835,96.2735043 Z" fill="#FF0000"></path>
		<path d="M173.167277,58.7643468 L158.163614,58.7643468 C156.913309,58.7643468 156.288156,59.3894994 156.288156,60.6398046 L156.288156,105.650794 L128.781441,105.650794 L128.781441,60.6398046 C128.781441,59.3894994 128.156288,58.7643468 126.905983,58.7643468 L112.527473,58.7643468 C111.277167,58.7643468 110.652015,59.3894994 110.652015,60.6398046 L110.652015,175.042735 C110.652015,176.29304 111.277167,176.918193 112.527473,176.918193 L127.531136,176.918193 C128.781441,176.918193 129.406593,176.29304 129.406593,175.042735 L129.406593,120.029304 L156.913309,120.029304 L156.913309,175.042735 C156.913309,176.29304 157.538462,176.918193 158.788767,176.918193 L173.79243,176.918193 C175.042735,176.918193 175.667888,176.29304 175.667888,175.042735 L175.667888,60.6398046 C175.042735,59.3894994 174.417582,58.7643468 173.167277,58.7643468 L173.167277,58.7643468 Z M510.749695,161.289377 C510.749695,160.664225 510.124542,160.664225 509.499389,160.664225 C503.247863,160.664225 465.113553,178.793651 465.113553,118.778999 C465.113553,92.5225885 475.115995,55.6385836 498.871795,77.5189255 C499.496947,78.1440781 500.1221,78.1440781 500.747253,78.1440781 C501.372405,78.1440781 501.997558,77.5189255 502.622711,76.2686203 L508.874237,65.6410256 C509.499389,65.015873 509.499389,64.3907204 509.499389,63.7655678 C509.499389,62.5152625 508.249084,61.8901099 506.998779,61.2649573 C465.738706,40.6349206 444.483516,78.7692308 444.483516,123.155067 C444.483516,180.669109 486.368742,188.796093 510.124542,171.291819 C511.374847,170.666667 511.374847,169.416361 511.374847,168.791209 L510.749695,161.289377 L510.749695,161.289377 Z M408.224664,111.90232 L436.981685,60.014652 C437.606838,59.3894994 436.981685,58.1391941 436.356532,58.1391941 L421.978022,58.1391941 C417.601954,58.1391941 416.351648,59.3894994 415.101343,62.5152625 C413.851038,65.6410256 392.595849,110.026862 390.095238,111.90232 L390.095238,60.014652 C390.095238,59.3894994 389.470085,58.1391941 388.844933,58.1391941 L373.216117,58.1391941 C372.590965,58.1391941 371.965812,58.7643468 371.965812,60.014652 L371.965812,175.042735 C371.965812,175.667888 372.590965,176.918193 373.216117,176.918193 L388.844933,176.918193 C390.095238,176.918193 390.095238,176.29304 390.095238,175.042735 L390.095238,115.653236 C391.970696,116.903541 418.227106,171.291819 418.852259,173.167277 C420.102564,175.667888 422.603175,176.918193 425.728938,176.918193 L441.357753,176.918193 C442.608059,176.918193 442.608059,176.29304 441.982906,175.042735 L408.224664,111.90232 L408.224664,111.90232 Z M271.316239,161.91453 L268.190476,161.91453 C264.43956,161.91453 263.814408,160.664225 263.814408,157.538462 L263.814408,60.014652 C263.814408,58.7643468 263.189255,58.1391941 262.564103,58.1391941 L214.42735,58.1391941 C213.177045,58.1391941 212.551893,58.7643468 212.551893,60.014652 C212.551893,86.2710623 213.177045,130.031746 195.672772,161.91453 L190.671551,161.91453 C189.421245,161.91453 188.796093,162.539683 188.796093,163.789988 L188.796093,198.173382 C188.796093,199.423687 190.046398,200.04884 190.671551,200.04884 L201.924298,200.04884 C204.424908,200.04884 205.675214,198.173382 205.675214,196.297924 L205.675214,176.918193 L256.312576,176.918193 L256.312576,198.173382 C256.312576,198.798535 256.937729,200.04884 258.188034,200.04884 L270.691087,200.04884 C271.941392,200.04884 273.81685,198.798535 273.81685,196.297924 L273.81685,163.789988 C273.191697,162.539683 272.566545,161.91453 271.316239,161.91453 L271.316239,161.91453 Z M245.059829,161.91453 L210.051282,161.91453 C220.053724,145.660562 229.431013,119.404151 229.431013,73.1428571 L245.059829,73.1428571 L245.059829,161.91453 L245.059829,161.91453 Z M320.078144,55.6385836 C294.446886,55.6385836 282.568987,87.5213675 282.568987,122.529915 C282.568987,180.043956 322.578755,188.796093 350.08547,171.916972 C351.335775,171.291819 351.335775,170.666667 351.335775,170.041514 L349.460317,161.91453 C349.460317,161.289377 348.835165,160.664225 347.58486,160.664225 C337.582418,160.664225 302.573871,178.168498 302.573871,121.279609 C315.076923,122.529915 315.076923,122.529915 352.586081,122.529915 C351.960928,93.7728938 348.835165,55.6385836 320.078144,55.6385836 L320.078144,55.6385836 Z M303.199023,108.151404 C303.199023,62.5152625 333.206349,53.7631258 333.206349,106.901099 C320.078144,106.901099 314.45177,106.901099 303.199023,108.151404 L303.199023,108.151404 Z" fill="#000000"></path>
	</g>
</svg>

<svg width="512" height="201" xmlns="http://www.w3.org/2000/svg" preserveAspectRatio="xMidYMid">
	<path d="M83.145 0H56.264C29.382 0 6.252 20.005 6.252 58.764c0 23.131 11.252 40.635 30.632 49.387L.625 173.167c-1.25 1.876 0 3.751 1.876 3.751H19.38c1.25 0 2.5-.625 3.125-1.875l33.134-63.766h11.877v63.766c0 .625.626 1.875 1.876 1.875h15.004c1.25 0 1.875-.625 1.875-1.875V2.5C85.646.625 85.021 0 83.145 0ZM67.516 96.274H57.514c-43.135 0-40.01-81.27-1.875-81.27h12.503v81.27h-.626Z" fill="red"/>
	<path d="M173.167 58.764h-15.003c-1.25 0-1.876.625-1.876 1.876v45.01h-27.507V60.64c0-1.25-.625-1.876-1.875-1.876h-14.379c-1.25 0-1.875.625-1.875 1.876v114.403c0 1.25.625 1.875 1.875 1.875h15.004c1.25 0 1.876-.625 1.876-1.875v-55.014h27.506v55.014c0 1.25.625 1.875 1.876 1.875h15.003c1.25 0 1.876-.625 1.876-1.875V60.64c-.625-1.25-1.25-1.876-2.5-1.876ZM510.75 161.29c0-.625-.625-.625-1.25-.625-6.252 0-44.386 18.13-44.386-41.885 0-26.256 10.002-63.14 33.758-41.26.625.625 1.25.625 1.875.625s1.25-.625 1.876-1.875l6.251-10.628c.625-.625.625-1.25.625-1.875 0-1.25-1.25-1.876-2.5-2.501-41.26-20.63-62.515 17.504-62.515 61.89 0 57.514 41.885 65.641 65.64 48.137 1.25-.625 1.25-1.876 1.25-2.5l-.624-7.503Zm-102.525-49.387 28.757-51.887c.625-.626 0-1.876-.625-1.876h-14.379c-4.376 0-5.626 1.25-6.877 4.376-1.25 3.126-22.505 47.512-25.006 49.387V60.015c0-.626-.625-1.876-1.25-1.876h-15.629c-.625 0-1.25.625-1.25 1.876v115.028c0 .625.625 1.875 1.25 1.875h15.629c1.25 0 1.25-.625 1.25-1.875v-59.39c1.876 1.25 28.132 55.639 28.757 57.514 1.25 2.5 3.751 3.751 6.877 3.751h15.629c1.25 0 1.25-.625.625-1.875l-33.758-63.14Zm-136.909 50.013h-3.126c-3.75 0-4.376-1.25-4.376-4.377V60.015c0-1.25-.625-1.876-1.25-1.876h-48.137c-1.25 0-1.875.625-1.875 1.876 0 26.256.625 70.017-16.88 101.9h-5c-1.25 0-1.876.625-1.876 1.875v34.383c0 1.25 1.25 1.876 1.876 1.876h11.252c2.5 0 3.751-1.876 3.751-3.751v-19.38h50.638v21.255c0 .626.625 1.876 1.875 1.876h12.503c1.25 0 3.126-1.25 3.126-3.751V163.79c-.625-1.25-1.25-1.875-2.5-1.875Zm-26.256 0H210.05c10.003-16.254 19.38-42.51 19.38-88.772h15.629v88.772Zm75.018-106.276c-25.631 0-37.509 31.882-37.509 66.89 0 57.515 40.01 66.267 67.516 49.388 1.25-.625 1.25-1.25 1.25-1.875l-1.875-8.127c0-.626-.625-1.25-1.875-1.25-10.003 0-45.011 17.503-45.011-39.385 12.503 1.25 12.503 1.25 50.012 1.25-.625-28.757-3.75-66.891-32.508-66.891ZM303.2 108.15c0-45.636 30.007-54.388 30.007-1.25-13.128 0-18.754 0-30.007 1.25Z"/>
</svg>
